X:1
T:Postquam consummati
T:Lupus Hellinck
T:Source : Liber motettorum I---Paris---P.Attaignant---1534. Editor : André Vierendeels (12/12/17).
T:Postquam consummati
T:©
T:©
T:©
T:©
T:©
C:Lupus Hellinck
Z:©
%%score [ 1 [ 2 3 ] 4 ]
L:1/8
Q:1/4=120
M:2/2
K:C
V:1 treble nm="Alto" snm="A"
V:2 treble-8 nm="Tenor 1" snm="T 1"
V:3 treble-8 nm="Tenor 2" snm="T 2"
V:4 bass nm="Bass" snm="B"
V:1
 z8 | A8 | A4 G2 G2 | c4 B4 | E8 | z2 D2 E2 G2- | G2 FE F2 A2- | AG F3 E E2- | E2 D2 E4- | E4 z4 | %10
w: |Post-|quam con- sum-|ma- ti|sunt|di- es o-|||* * cto,|_|
 E6 DC | D4 C4 | z2 G2 A2 c2- | c2 BA BAGF | E3 F G2 A2- | A2 G2 A4 | z2 A2 G2 A2- | A2 GF G3 A | %18
w: o- * *|* cto,|di- es o-|||* * cto,|die- es o-||
 B2 c4 BA | G2 A4 G2 | A8 | z8 | z4 z2 A2 | A2 G2 A2 E2 | G2 A2 F4 | E4 z2 E2- | EFGA B2 c2- | %27
w: ||cto||ut|cir- cum ci- de-|re- tur pu-|er, pu-||
 cB A4 G2 | A4 z2 A,2- | A,B,CD E2 F2- | FE D4 C2 | D4 z4 | A8 | F4 G4 | A8 | z8 | z8 | z4 z2 F2- | %38
w: |er, pu-|||er,|vo-|ca- tum|est|||no-|
 F2 C2 D4 | C4 F4- | F4 E4- | E4 z2 A2- | A2 A2 G2 G2 | A3 B cB c2- | c2 BA BAGF | E3 F G2 A2- | %46
w: * men e-|ius Ie-|* sus,|_ quod|_ vo- ca- tum|est ab an- * *|||
 A2 G2 F2 E2- | E2 D2 E4 | z2 A4 A2 | G2 G2 A2 B2 | c2 A2 G3 A/B/ | c2 B3 A A2- | A2 G2 A3 G | %53
w: |* ge- lo,|quod vo-|ca- tum est ab|an- * * * *|||
 FE F3 E E2- | E2 D2 E4- | E4 z4 | z4 z2 A2- | A2 A2 G2 G2 | c2 c2 B4 | z8 | z2 G2 A4 | B4 c3 B | %62
w: |* ge- lo,|_|pri|_ us- quam in|u- te- ro||con- ci-|pe- re- *|
 A2 G2 A2 B2 | c2 B3 A A2- | A2 G2 A4- | A8- | A8- | A8 |] %68
w: ||* * tur.|_|||
V:2
 d8 | d4 c2 c2 | f4 e4 | A4 z2 G2 | A2 c4 BA | B c2 B c2 e2 | d3 c/B/ A2 DE | FGAB c3 B | %8
w: Post-|quam con- sum-|ma- ti|sunt di-|es o- * *||* * * cto, di- *||
 c2 d2 B2 e2- | e2 dc d4 | c8 | z4 z2 e2 | g4 f4 | e3 d/c/ d4 | c8 | z2 d2 e2 f2- | f2 ed e2 f2- | %17
w: * * es o-||cto,|di-|es o-||cto,|di- es o-||
 fedc B3 c | d2 e4 A2 | e4 z2 E2 | E2 E2 F2 D2 | F2 G2 E4 | D4 z4 | z4 z2 A2 | G2 F2 D2 D2 | %25
w: ||cto, ut|cir- cum- ci- de-|re- tur pu-|er|ut|cir- cum- ci- de-|
 A4 E4 | z2 g3 f e2- | e2 d2 e2 e2 | c2 d2 e4 | d2 c3 B A2- | A2 G2 A4- | A4 z4 | z4 d4- | d4 B4 | %34
w: re- tur|pu- er, ut|_ cir- cum- ci-|de- re- tur|pu- * * *|* * er,|_|vo-|* ca-|
 c4 d3 c | B2 A2 G2 A2- | AGFE F2 G2- | GFED E2 F2- | FE E4 D2 | F2 E2 F3 G | A2 F2 c4- | c4 z4 | %42
w: tum est _|_ _ _ no-|* * * * men e-|* * * * * ius|_ _ Ie- *||* * sus,|_|
 z2 e4 e2 | d2 d2 e4- | e8 | z2 A2 G2 F2 | E4 z2 c2- | c2 A2 B2 e2- | ec f3 e e2- | e2 d2 e4 | %50
w: quod vo-|ca- tum est|_|ab an- ge-|lo, ab|_ an- ge- *||* * lo,|
 z2 A2 B2 c2 | A2 B2 c2 A2 | B4 A4- | A4 z2 A2- | A2 A2 G2 G2 | c2 c2 B4 | z4 e4 | d2 A2 c3 B | %58
w: quod vo- ca-|tum est ab an-|ge- lo,|_ pri-|* us- quam in|u- te- ro|con-|ci- pe- re- *|
 A4 G4 | c8 | d4 e4 | E4 z4 | z4 z2 d2 | e2 g4 e2- | ed B2 c4 | d2 e2 f2 e2 | f4 e4- | e8 |] %68
w: |||tur,|con-|ci- * *|* * pe- re-||* tur.|_|
V:3
 z8 | z8 | z8 | z8 | z8 | z8 | z8 | A8 | A4 G2 G2 | c4 B4 | E8 | z2 D2 E2 G2- | G2 FE F4 | G8 | %14
w: |||||||Post-|quam con- sum-|ma- ti|sunt|di- es o-||cto,|
 z8 | z8 | z8 | z8 | z2 G2 A2 c2- | c2 BA B4 | A8 | z2 d2 d2 c2 | d2 A2 c2 d2 | B4 ABcd | %24
w: ||||di- es o-||cto,|ut cir- cum-|ci- de- re- tur|pu- * * * *|
 e2 f3 e d2- | d2 c2 B4 | A2 e2 d2 A2 | c2 d2 B4 | A4 z2 A2 | A2 A2 G2 D2 | F2 G2 E4 | D8- | D8 | %33
w: ||||er, ut|cir- cum- ci- de-|re- tur pu-|er,||
 z8 | z2 A4 A2 | d4 c4 | A4 z2 c2- | cBAG A2 B2- | BA A4 G2 | A4 A4- | A4 A4- | A8- | A4 z4 | %43
w: |qud vo-|ca- ti|est no-|* * * * men e-||us Ie-|sus, _|_||
 z4 z2 A2- | A2 A2 G2 G2 | A4 z2 c2- | c2 B2 AGFE | F4 E4 | z8 | z4 z2 e2- | eddc e2 E2 | %51
w: quod|_ vo- ca- tum|est ab|_ an- * * * *|ge- lo,||ab|_ _ _ _ an- ge-|
 A2 G2 A4 | E4 F2 DE | FGAB cd e2 | c2 d2 B4 | A4 z2 d2- | d2 d2 c2 c2 | f2 f2 e4 | z2 c2 d2 e2 | %59
w: ||||lo, pri-|* us- quam u-|* te- ro|con- ci- pe-|
 A2 e3 d c2- | cB B3 A A2- | A2 G2 A2 f2- | f2 e2 d4 | c2 e3 d c2 | B4 A4- | A8- | A8- | A8 |] %68
w: re- * * *||* * tur, con-|* ci- pe-|re- * * *|* tur.|_|||
V:4
 z8 | z8 | z8 | z8 | z8 | z8 | D,8 | D,4 C,2 C,2 | F,4 E,4 | A,,4 z2 G,,2 | A,,2 C,4 B,,A,, | %11
w: ||||||Pos-|quam con- sum-|ma- ti|sunt di-|es o- * *|
 B,,4 C,4- | C,4 z4 | z4 z2 G,2 | A,2 C4 B,A, | B,4 A,4- | A,4 z4 | D,4 E,2 G,2- | G,2 F,E, F,4 | %19
w: * cto,|_|di-|es o- * *|* cto,|_|di- es o-||
 E,8 | A,,4 z2 A,2 | A,2 B,2 G,4 | A,2 F,4 D,2 | E,4 A,,4 | z8 |"^#" z2 A,2 A,2 G,2 | %26
w: |cto, ut|cir- cum- ci-|de- re- tur|pu- er,||ut cir- cum-|
 A,2 E,2 G,2 A,2 | F,4 E,4 | z2 D,2 D,2 C,2 | D,2 A,,2 C,2 D,2 | B,,4 A,,4 | z8 | z4 z2 D,2- | %33
w: ci- de- re- tur|pu- er,|ut cir- cim-|ci- de re- tur|pu- er,||vo-|
 D,2 D,2 G,4 | F,4 D,4 | z2 D,2 E,2 F,2- | F,E,D,C, D,2 E,2- | E,D,C,B,, C,2 D,2- | %38
w: * ca- *|tum est|no- men e-|||
 D,C,B,,A,, B,,4 | A,,4 D,4- | D,4 A,,4- | A,,4 z4 | z8 | z8 | z8 | z8 | z4 z2 A,2- | %47
w: * * * * Ie-|sus, Ie-|* sus,|_|||||quod|
 A,2 A,2 G,2 G,2 | A,4 z2 C2- | C2 B,2 A,2 G,2 | F,4 E,4 | z8 | z4 z2 D,2- | D,2 D,2 C,2 C,2 | %54
w: _ vo- ca- tum|est ab|_ an- * *|ge- lo,||pri-|* us- quam in|
 F,2 F,2 E,4 | z2 A,4 G,2 | F,2 D,2 A,4 | D,4 z4 | z8 | z2 A,4 A,2 | G,2 G,2 C2 C2 | B,4 z4 | %62
w: u- te- ro|in u-|* * te-|ro,||pri- us-|quam in u- te-|ro,|
 z2 C4 B,2 | A,2 G,2 A,4 | E,4 z2 F,2- | F,2 E,2 D,2 C,2 | D,4 A,,4- | A,,8 |] %68
w: con- *|ci- pe- re-|tur, con-|* * ci- pe-|re- tur|_|

